src/assets/img/Home/icons/CaseItem/sftf.svg

<svg width="27" height="20" viewBox="0 0 27 20" fill="none" xmlns="http://www.w3.org/2000/svg">
<g id="Frame" clip-path="url(#clip0_101_121)">
<g id="Group">
<path id="Vector" d="M23.6576 9.0185C23.6576 9.76635 23.6676 10.5093 23.6525 11.2571C23.6425 11.6606 23.7579 12.0148 23.9687 12.3494C24.5107 13.2251 25.2284 13.9582 25.9561 14.6815C26.2271 14.9521 26.5081 15.2079 26.7942 15.4588C26.9347 15.5818 26.9999 15.7098 26.9999 15.9016C26.9899 16.7233 26.9899 17.54 26.9949 18.3617C26.9999 19.0456 26.6988 19.5572 26.0715 19.8426C25.4291 20.1329 24.8269 20.0099 24.2999 19.5622C23.2109 18.6274 22.1269 17.6876 21.0429 16.7528C20.3051 16.1132 19.5724 15.4638 18.8196 14.8438C18.5537 14.6224 18.2375 14.4601 17.9314 14.2928C17.4797 14.0468 16.9929 13.9139 16.4659 13.9336C16.0845 13.9484 15.6931 13.9533 15.3116 13.9238C14.7546 13.8795 14.3581 13.5007 14.2828 12.9791C14.2126 12.5216 14.4886 12.0296 14.9503 11.8524C15.126 11.7836 15.3217 11.754 15.5124 11.754C16.9577 11.7442 18.4031 11.7491 19.8535 11.7491C20.3955 11.7491 20.5912 11.5572 20.5912 11.021C20.5912 9.93855 20.5862 8.85614 20.5912 7.77373C20.5962 7.36044 20.4507 7.03572 20.1345 6.75527C18.3128 5.15134 16.5011 3.53756 14.6843 1.92379C14.1975 1.49082 14.1423 0.851216 14.5488 0.383811C14.9503 -0.0835936 15.6077 -0.127874 16.1247 0.26573C18.4483 2.03695 20.7669 3.80816 23.1005 5.56954C23.4869 5.85983 23.6676 6.21407 23.6626 6.68147C23.6525 7.45884 23.6576 8.23621 23.6576 9.0185Z" fill="#CAFF33"/>
<path id="Vector_2" d="M0.00478236 17.2054C0.00478236 16.7626 0.00980095 16.3198 -0.000236225 15.877C-0.00525481 15.7048 0.0650054 15.5917 0.180433 15.4736C0.93824 14.711 1.68601 13.9385 2.42876 13.1612C2.58434 12.9988 2.69976 12.8069 2.83527 12.6298C3.19159 12.1526 3.3572 11.631 3.34214 11.0209C3.31203 9.61381 3.34716 8.20175 3.32709 6.7897C3.31705 6.23373 3.51779 5.84013 3.97448 5.49573C6.29307 3.76387 8.58657 2.00249 10.8901 0.246034C11.3719 -0.122969 12.0343 -0.0639287 12.4258 0.378876C12.8273 0.83152 12.7921 1.48097 12.3254 1.90409C11.6178 2.5437 10.9001 3.16854 10.1875 3.80323C9.05831 4.802 7.92913 5.80569 6.79995 6.80446C6.53396 7.04062 6.40348 7.32598 6.40348 7.67039C6.40348 8.81676 6.39846 9.96313 6.40348 11.1144C6.40348 11.5375 6.6243 11.7442 7.06092 11.7442C8.55144 11.7491 10.0369 11.7442 11.5275 11.7491C12.2301 11.7491 12.7219 12.2313 12.7068 12.8807C12.6968 13.3776 12.3304 13.8254 11.8236 13.8992C11.5224 13.9435 11.2063 13.9631 10.9001 13.9336C9.87132 13.8352 9.00311 14.2042 8.23527 14.8045C7.45237 15.4145 6.71965 16.0935 5.97188 16.738C4.87281 17.6827 3.77876 18.6372 2.67467 19.5769C1.78136 20.3395 0.461474 20.005 0.0800612 18.9176C0.0298753 18.7799 0.0148195 18.6273 0.00980095 18.4847C-0.000236225 18.0615 0.00478236 17.6335 0.00478236 17.2054Z" fill="#CAFF33"/>
<path id="Vector_3" d="M14.2122 10.0369C14.2122 10.2731 14.2122 10.4945 14.2122 10.7356C13.7907 10.7356 13.3892 10.7356 12.9526 10.7356C12.9526 10.5437 12.9476 10.3567 12.9526 10.1698C12.9576 10.032 12.9175 9.97296 12.7719 9.93852C12.3554 9.84012 11.9689 9.67284 11.6076 9.38748C11.8385 9.08735 12.0593 8.80199 12.26 8.53631C12.6414 8.67899 12.9877 8.84627 13.3541 8.92991C13.6201 8.98895 13.9161 8.94959 14.1922 8.90531C14.403 8.87087 14.5385 8.70851 14.5535 8.48711C14.5736 8.26078 14.4531 8.10334 14.2524 8.02462C13.9111 7.8967 13.5548 7.7983 13.2085 7.68514C12.9576 7.6015 12.6966 7.5277 12.4507 7.42438C11.8736 7.18329 11.5675 6.75525 11.5524 6.12548C11.5373 5.4662 11.7883 4.93483 12.3905 4.64947C12.7819 4.46251 13.1182 4.32474 12.9225 3.77862C13.349 3.77862 13.7204 3.7737 14.0968 3.78846C14.137 3.78846 14.2072 3.91146 14.2072 3.98034C14.2323 4.39855 14.2323 4.38871 14.6288 4.52647C14.8596 4.60519 15.0805 4.71835 15.3314 4.83151C15.1206 5.15131 14.95 5.43176 14.7593 5.69744C14.7292 5.7368 14.6087 5.73188 14.5385 5.7122C14.2072 5.62856 13.886 5.52032 13.5548 5.45636C13.4243 5.43176 13.2738 5.47112 13.1383 5.50556C12.9375 5.55968 12.802 5.69252 12.787 5.909C12.7719 6.12056 12.8673 6.28292 13.063 6.36165C13.3189 6.46497 13.5799 6.54369 13.8409 6.62733C14.1269 6.72081 14.423 6.78969 14.699 6.89301C15.497 7.19805 15.8182 7.68022 15.778 8.47235C15.7379 9.20051 15.2812 9.74172 14.5284 9.95328C14.4381 9.9828 14.3427 10.0074 14.2122 10.0369Z" fill="#CAFF33"/>
</g>
</g>
<defs>
<clipPath id="clip0_101_121">
<rect width="27" height="20" fill="white"/>
</clipPath>
</defs>
</svg>

<svg xmlns="http://www.w3.org/2000/svg" width="27" height="20" fill="none"><g fill="#CAFF33" clip-path="url(#a)"><path d="M23.658 9.018c0 .748.01 1.491-.006 2.24-.01.403.106.757.317 1.091.542.876 1.26 1.61 1.987 2.332.271.271.552.527.838.778.14.123.206.25.206.443-.01.821-.01 1.638-.005 2.46.005.684-.296 1.195-.924 1.48-.642.29-1.244.168-1.771-.28-1.09-.935-2.173-1.874-3.257-2.81-.738-.639-1.47-1.288-2.223-1.908-.266-.222-.582-.384-.889-.551a2.801 2.801 0 0 0-1.465-.36c-.382.015-.773.02-1.154-.01-.557-.043-.954-.422-1.03-.944-.07-.457.207-.95.668-1.127.176-.068.372-.098.562-.098 1.446-.01 2.891-.005 4.341-.005.542 0 .738-.192.738-.728 0-1.082-.005-2.165 0-3.247a1.26 1.26 0 0 0-.457-1.019c-1.821-1.604-3.633-3.217-5.45-4.831-.486-.433-.542-1.073-.135-1.54.401-.468 1.059-.512 1.576-.118 2.323 1.771 4.642 3.542 6.976 5.304.386.29.567.644.562 1.111-.01.778-.005 1.555-.005 2.337ZM.005 17.205c0-.442.005-.885-.005-1.328-.005-.172.065-.285.18-.403.758-.763 1.506-1.536 2.249-2.313.155-.162.27-.354.406-.531a2.48 2.48 0 0 0 .507-1.61c-.03-1.406.005-2.818-.015-4.23-.01-.556.19-.95.647-1.294 2.32-1.732 4.613-3.494 6.916-5.25a1.123 1.123 0 0 1 1.536.133c.401.453.366 1.102-.1 1.525-.708.64-1.426 1.265-2.139 1.9-1.129.998-2.258 2.002-3.387 3a1.107 1.107 0 0 0-.397.866c0 1.147-.005 2.293 0 3.444 0 .423.221.63.658.63 1.49.005 2.976 0 4.466.005.703 0 1.195.482 1.18 1.132a1.05 1.05 0 0 1-.883 1.018 3.864 3.864 0 0 1-.924.035c-1.029-.099-1.897.27-2.665.87-.783.61-1.515 1.29-2.263 1.934-1.1.945-2.193 1.9-3.297 2.839-.894.762-2.214.428-2.595-.66a1.422 1.422 0 0 1-.07-.432c-.01-.424-.005-.851-.005-1.28Z"/><path d="M14.212 10.037v.699h-1.26c0-.192-.004-.38 0-.566.006-.138-.034-.197-.18-.231a2.907 2.907 0 0 1-1.164-.552c.23-.3.451-.585.652-.85.381.142.728.31 1.094.393.266.059.562.02.838-.025.211-.034.347-.196.361-.418.02-.226-.1-.384-.3-.462-.342-.128-.698-.227-1.044-.34-.251-.083-.512-.157-.758-.26-.577-.242-.883-.67-.899-1.3-.015-.659.236-1.19.838-1.476.392-.186.728-.324.532-.87.427 0 .798-.005 1.175.01.04 0 .11.122.11.191.025.419.025.409.422.546.23.08.452.192.702.306-.21.32-.381.6-.572.865-.03.04-.15.035-.22.015-.332-.083-.653-.192-.984-.256-.13-.024-.281.015-.417.05-.2.054-.336.187-.351.403-.015.212.08.374.276.453.256.103.517.182.778.265.286.094.582.163.858.266.798.305 1.12.787 1.079 1.58-.04.728-.497 1.269-1.25 1.48-.09.03-.185.054-.316.084Z"/></g><defs><clipPath id="a"><path fill="#fff" d="M0 0h27v20H0z"/></clipPath></defs></svg>
